svg/24/logo-telegram.svg

<svg width="24" height="24" viewBox="0 0 24 24" fill="currentColor" xmlns="http://www.w3.org/2000/svg"><path fill-rule="evenodd" clip-rule="evenodd" d="M3.3749 10.8479C8.74359 8.50884 12.3236 6.96679 14.1148 6.22175C19.2292 4.0945 20.2919 3.72498 20.9846 3.71278C21.1369 3.71009 21.4776 3.74785 21.6982 3.92689C21.8845 4.07807 21.9358 4.28229 21.9603 4.42562C21.9848 4.56896 22.0154 4.89548 21.9911 5.15061C21.714 8.06265 20.5147 15.1294 19.9046 18.3909C19.6465 19.771 19.1382 20.2337 18.6461 20.279C17.5766 20.3774 16.7645 19.5722 15.7287 18.8932C14.1078 17.8307 13.1921 17.1693 11.6188 16.1325C9.80053 14.9343 10.9792 14.2758 12.0154 13.1995C12.2866 12.9179 16.9987 8.63185 17.0899 8.24305C17.1013 8.19442 17.1119 8.01316 17.0042 7.91745C16.8965 7.82174 16.7376 7.85447 16.6229 7.8805C16.4604 7.9174 13.871 9.62886 8.85486 13.0149C8.11988 13.5196 7.45416 13.7655 6.8577 13.7526C6.20015 13.7384 4.93528 13.3808 3.99498 13.0752C2.84166 12.7003 1.92503 12.5021 2.00485 11.8654C2.04642 11.5337 2.5031 11.1946 3.3749 10.8479Z"/></svg>

<svg xmlns="http://www.w3.org/2000/svg" width="24" height="24" fill="currentColor" viewBox="0 0 24 24">
  <path fill-rule="evenodd" d="M3.375 10.848c5.369-2.34 8.949-3.881 10.74-4.626 5.114-2.128 6.177-2.497 6.87-2.51.152-.002.493.036.713.215.186.15.238.355.262.498.025.144.055.47.031.725-.277 2.912-1.476 9.98-2.086 13.24-.259 1.38-.767 1.843-1.259 1.889-1.07.098-1.881-.707-2.917-1.386-1.621-1.063-2.537-1.724-4.11-2.76-1.818-1.199-.64-1.857.396-2.934.272-.281 4.984-4.567 5.075-4.956.011-.049.022-.23-.086-.326-.108-.095-.266-.063-.381-.037-.163.037-2.752 1.749-7.768 5.135-.735.504-1.4.75-1.997.737-.658-.014-1.923-.371-2.863-.677-1.153-.375-2.07-.573-1.99-1.21.041-.332.498-.67 1.37-1.017Z" clip-rule="evenodd"/>
</svg>
